icon/fa/layer-group.svg

<svg xmlns="http://www.w3.org/2000/svg" viewBox="0 0 512 512"><!--! Font Awesome Free 6.1.2 by @fontawesome - https://fontawesome.com License - https://fontawesome.com/license/free (Icons: CC BY 4.0, Fonts: SIL OFL 1.1, Code: MIT License) Copyright 2022 Fonticons, Inc.--><path d="M232.5 5.171a56.026 56.026 0 0 1 47 0L498.1 106.2c8.5 3.9 13.9 12.4 13.9 20.9 0 10.2-5.4 18.7-13.9 22.7l-218.6 101c-14.9 6.9-32.1 6.9-47 0l-218.57-101C5.438 145.8 0 137.3 0 127.1c0-8.5 5.437-17 13.93-20.9L232.5 5.171zM498.1 234.2c8.5 3.9 13.9 12.4 13.9 20.9 0 10.2-5.4 18.7-13.9 22.7l-218.6 101c-14.9 6.9-32.1 6.9-47 0l-218.57-101C5.438 273.8 0 265.3 0 255.1c0-8.5 5.437-17 13.93-20.9l53.2-24.6 151.97 70.2c23.4 10.9 50.4 10.9 73.8 0l152-70.2 53.2 24.6zM292.9 407.8l152-70.2 53.2 24.6c8.5 3.9 13.9 12.4 13.9 20.9 0 10.2-5.4 18.7-13.9 22.7l-218.6 101c-14.9 6.9-32.1 6.9-47 0l-218.57-101C5.438 401.8 0 393.3 0 383.1c0-8.5 5.437-17 13.93-20.9l53.2-24.6 151.97 70.2c23.4 10.9 50.4 10.9 73.8 0z"/></svg>

<svg xmlns="http://www.w3.org/2000/svg" viewBox="0 0 512 512" height="1em" width="1em">
<!--! Font Awesome Free 6.1.2 by @fontawesome - https://fontawesome.com License - https://fontawesome.com/license/free (Icons: CC BY 4.0, Fonts: SIL OFL 1.1, Code: MIT License) Copyright 2022 Fonticons, Inc.-->
  <path d="M232.5 5.171C247.4-1.718 264.6-1.718 279.5 5.171L498.1 106.2C506.6 110.1 512 118.6 512 127.1C512 137.3 506.6 145.8 498.1 149.8L279.5 250.8C264.6 257.7 247.4 257.7 232.5 250.8L13.93 149.8C5.438 145.8 0 137.3 0 127.1C0 118.6 5.437 110.1 13.93 106.2L232.5 5.171zM498.1 234.2C506.6 238.1 512 246.6 512 255.1C512 265.3 506.6 273.8 498.1 277.8L279.5 378.8C264.6 385.7 247.4 385.7 232.5 378.8L13.93 277.8C5.438 273.8 0 265.3 0 255.1C0 246.6 5.437 238.1 13.93 234.2L67.13 209.6L219.1 279.8C242.5 290.7 269.5 290.7 292.9 279.8L444.9 209.6L498.1 234.2zM292.9 407.8L444.9 337.6L498.1 362.2C506.6 366.1 512 374.6 512 383.1C512 393.3 506.6 401.8 498.1 405.8L279.5 506.8C264.6 513.7 247.4 513.7 232.5 506.8L13.93 405.8C5.438 401.8 0 393.3 0 383.1C0 374.6 5.437 366.1 13.93 362.2L67.13 337.6L219.1 407.8C242.5 418.7 269.5 418.7 292.9 407.8V407.8z"/>
</svg>
